icon/pk/round-trip.svg

<svg viewBox="0 0 48 48" fill="none" xmlns="http://www.w3.org/2000/svg" height="1em" width="1em">
  <path d="M9.00056 24L5.00023 20C5.00023 20 3.60071 24.7277 3.92442 27.5782C4.24812 30.4286 7.27333 32.5742 10 31C12.7267 29.4258 44.0006 9.99999 44.0006 9.99999L35.0006 7.99999L9.00056 24Z" fill="#2F88FF" stroke="black" stroke-width="4" stroke-linecap="round" stroke-linejoin="round"/>
  <path d="M26 13.0001L10.7979 11.3847L8 13.0001L14.9999 20" stroke="black" stroke-width="4" stroke-linecap="round" stroke-linejoin="round"/>
  <path d="M29 44L25 39H42V35" stroke="black" stroke-width="4" stroke-linecap="round" stroke-linejoin="round"/>
  <path d="M32 28L36 33H19V37" stroke="black" stroke-width="4" stroke-linecap="round" stroke-linejoin="round"/>
</svg>

<svg width="48" height="48" fill="none" xmlns="http://www.w3.org/2000/svg"><path d="m9 24-4-4s-1.4 4.728-1.076 7.578C4.248 30.428 7.274 32.574 10 31c2.727-1.574 34-21 34-21l-9-2L9 24Z" fill="#2F88FF" stroke="#000" stroke-width="4" stroke-linecap="round" stroke-linejoin="round"/><path d="m26 13-15.202-1.615L8 13l7 7M29 44l-4-5h17v-4M32 28l4 5H19v4" stroke="#000" stroke-width="4" stroke-linecap="round" stroke-linejoin="round"/></svg>
